X: 1580
T: Pesendîde Seyir
C: Şefik Gürmeriç
O: Turkey
F: http://compmusic.upf.edu/node/140
N: pesendide--seyir--sofyan--1--sefik_gurmeric
N: makam= pesendide
N: form= seyir
N: usul= sofyan = 4/4
M: 4/4
L: 1/16
K: C _1/4B ^f  
Q: 1/4=60
%%MIDI tuningsystem comma53
e2d2 ^c2d2 c2d2 e2ed  | d8 z2d2 ^c2d2  | \
w:   |   | 
e4 =f2e2 d3^c =B4  | ^c2d2 e2ed d8  | 
w:   |   | 
d4 a4 a6g2  | g4 a2g2 f3e d4  | e2g2 =f2e2 e2d2 d2^c2  | \
w:   |   |   | 
d8 ^c2d2 e4  | 
w:   | 
g2=f2 e2d2 d3^c =B4  | =B6A2 B2A2 G4  | \
w:   |   | 
F2G2 A2B2 A4 G2F2  | E4 F2G2 F3E D4  | 
w:   |   | 
z4 D2G2 G4 A4  | B4 A2G2 c4 B2A2  | A3G F2G2 F2G2 A2AG  | G16  | 
w:   |   |   |   | 
|


